X: 1
T:Ace and Deuce of Pipering, The
R:set dance
Z:id:hn-setdance-10
M:C|
K:G
dc|BGcA BGcA|BGcA B2AG|d2e^c d2ec|dfe^c dcBA|e2fd ed^cB|Adde d=cBA|
(3BcB cA B2AG|FGAB cBcA|G2ge fdcA|FGAB cAFG|AGGF G2FG|AGGF G2:|
|:GF|G2=f2 e2f2|G2=fe fdcA|G2g2 ^f2g2|d2ga gfdc|A2=f2 e2f2|d^cde fefg|
afge fde^c|d2eg fdcA|G2ge fdcA|FGAB cAFG|AGGF G2FG|AGGF G2:|
